X:89
T:Red Haired Boy
C:Traditional - Bluegrass version
M:4/4
L:1/8
Q:1/8=440
K:A
|:EFA2 A2cd|efec d2cd|e2A2 A2dc|BA=G2 G4|
EFA2 A2cd|efec d2cd|e2a2 afed|1 cBA2 A4:|2 c2A2 A2ef|
|:=g2fg e2ag|fed2 d2cd|e2A2 A2dc|BA=G2 G4|
EFA2 A2cd|efec d2cd|e2a2 afed||1 cBA2 A2ef:|2 cBA2 A4|
